src/assets/icons/copy.svg

<svg width="15" height="15" viewBox="0 0 15 15" fill="none" xmlns="http://www.w3.org/2000/svg">
    <path d="M9.38772 14.2037H1.67769V12.5349L0 12.5423V4.79117H1.67769V3H9.38772V4.86022H11.0654V12.3435H9.38772V14.2037Z" fill="black"/>
    <path d="M13.3882 11.2037H5.67769V9.53495L4 9.54227V1.79117V0H5.67769H13.3877V1.86022H15.0654V9.34348V11.2037H13.3882ZM6.60773 10.2621H12.4577H14.1354V8.40186V2.80184H12.4577V0.94162H6.60773H4.93004V2.73279V8.59647L6.60773 8.58914V10.2621Z" fill="black"/>
</svg>

<svg width="15" height="15" fill="none" xmlns="http://www.w3.org/2000/svg"><path d="M9.388 14.204h-7.71v-1.67L0 12.543v-7.75h1.678V3h7.71v1.86h1.677v7.484H9.388v1.86z" fill="#000"/><path d="M13.388 11.204h-7.71v-1.67L4 9.543V0h9.388v1.86h1.677v9.343h-1.677zm-6.78-.942H14.135v-7.46h-1.677V.942H4.93v7.654l1.678-.007v1.673z" fill="#000"/></svg>
